shader_type canvas_item;

uniform vec4 flash_color : source_color = vec4(0.0, 0.784, 0.875, 1.0); // #00c8df
uniform float flash_amount : hint_range(0.0, 1.0) = 0.0;

void fragment() {
	vec4 tex_color = texture(TEXTURE, UV);
	COLOR = vec4(mix(tex_color.rgb, flash_color.rgb, flash_amount), tex_color.a);
}